X:63
T:Hemp Dressers. Ru1.063
%%VWML:RutherfordVol1-2248-p32-0p32
Z:Transcription by Village Music Project, Steve Mansfield July 2015
F:http://www.village-music-project.org.uk/
F:http://www.vwml.org/record/RutherfordVol1/2248/p32
N: The time signature in the original is 6/8 but it is notated in 6/4
M:6/4
Q:3/4=100
K:C
B>cd d2c|B>cd D>EF|G2G G2A|B3c3 :|
|: B>AB G>AB|A>GA D>E^F|G2G G2A|B3c3 |]
W:
W:All the Cous. takes their Partner by the Hand &
W: Lead up to the Top the first Cu. Casts off & the rest
W: all follows then Lead up to the Top & all cast
W: off again  Lead up to the Top & stand in your
W: proper places Cross over & turn till you come to yr.
W: own Places. Cast off & turn. Half Figure. Right & left.
W: Hands all round. Right & left all round.  Note, at the
W: end of every Change lead up & cast off, as above.
T:Jack on the Green. Ru1.064
L:1/4
B:RUTHERFORD Complete Collection of 200 Country Dances Vol.1; London: David & John Rutherford 1756.
Z:vmp.Mike Hicken 2015 www.village-music-project.org.uk
M:9/4
Q:3/4=100
K:D
D2E (D/E/F)D (E/F/G)E|F2A AEG TF2D|
D2E (D/E/F)D (E/F/G)E|Tc2dd AG TF2D :|
|: d2fec(A B/c/d)B|Tc2eeBdTc2A|
d2fecA (B/c/)dB|Tc2ddAG TF2D |]
W:
W: The first Cu. set & cast off one Cu. set & cast off
W: again .|  set & cast up again :|  Cross over one Cu. & Foot
W: it cross over again & Foot it :|  Then the Man Right
W: Hand & Left quite up to the Top on the Womans side &
W: the Wo. on the Mans side at the same time .||  Then Right
W: Hand & Left down two Cu. on your own sides  Hands
W: round all six with the 2d. & 3d. Cu. .||  Lead up to the
W: Top Foot it & cast off :|
|:
